src/lib/packages/icons/src/assets/line/twitch.svg

<svg width="24" height="24" viewBox="0 0 24 24" fill="none" xmlns="http://www.w3.org/2000/svg">
<path d="M7.21002 3L4 6.21001V17.79H7.85999V21L11.07 17.79H14.21L20 12V3H7.21002ZM18.71 11.36L16.14 13.93H13L10.43 16.5V13.93H7.85999V4.28999H18.71V11.36ZM13 10.71H11.71V6.85001H13V10.71ZM16.21 10.71H14.92V6.85001H16.21V10.71Z" fill="currentColor"/>
</svg>

<svg xmlns="http://www.w3.org/2000/svg" width="24" height="24" fill="none"><path fill="currentColor" d="M7.21 3 4 6.21v11.58h3.86V21l3.21-3.21h3.14L20 12V3H7.21Zm11.5 8.36-2.57 2.57H13l-2.57 2.57v-2.57H7.86V4.29h10.85v7.07ZM13 10.71h-1.29V6.85H13v3.86Zm3.21 0h-1.29V6.85h1.29v3.86Z"/></svg>
